images/passEyeClose.svg

<svg width="25" height="26" viewBox="0 0 25 26" fill="none" xmlns="http://www.w3.org/2000/svg">
<path d="M21.4957 15.7747C16.5849 20.6855 8.59519 20.6855 3.68439 15.7747L1.3937 13.1543C1.06379 12.7769 1.06426 12.2136 1.39479 11.8367L3.76576 9.13358C6.22096 6.67839 9.44608 5.45038 12.6716 5.45038C15.8972 5.45038 19.1219 6.67798 21.5775 9.13358L23.8682 11.7543C24.1981 12.1317 24.1976 12.6951 23.867 13.0719L21.4957 15.7747ZM20.993 9.71764C16.4044 5.12944 8.93844 5.12944 4.34982 9.71764L2.53585 11.8485C2.21844 12.2214 2.21772 12.7693 2.53417 13.143L4.26845 15.191C8.85707 19.7792 16.323 19.7792 20.9116 15.191L22.7256 13.0601C23.043 12.6873 23.0437 12.1394 22.7273 11.7657L20.993 9.71764Z" fill="#606266" stroke="#606266"/>
<path d="M12.6168 17.8364C9.656 17.8364 7.24707 15.4275 7.24707 12.4667C7.24707 9.50595 9.656 7.09702 12.6168 7.09702C15.5775 7.09702 17.9865 9.50595 17.9865 12.4667C17.9865 15.4275 15.578 17.8364 12.6168 17.8364ZM12.6168 7.92313C10.1116 7.92313 8.07318 9.96155 8.07318 12.4667C8.07318 14.9719 10.1116 17.0103 12.6168 17.0103C15.1219 17.0103 17.1604 14.9719 17.1604 12.4667C17.1604 9.96155 15.1224 7.92313 12.6168 7.92313Z" fill="#606266" stroke="#606266"/>
<rect x="2.46468" y="2.99138" width="3.2" height="28.7245" rx="1.6" transform="rotate(-40.457 2.46468 2.99138)" fill="#606266" stroke="white" stroke-width="1.2"/>
</svg>

<svg width="25" height="26" fill="none" xmlns="http://www.w3.org/2000/svg"><path d="M21.496 15.775c-4.911 4.91-12.9 4.91-17.812 0l-2.29-2.62a1 1 0 010-1.318l2.372-2.703a12.556 12.556 0 018.906-3.684c3.225 0 6.45 1.228 8.905 3.684l2.291 2.62a1 1 0 01-.001 1.318l-2.371 2.703zm-.503-6.057c-4.589-4.589-12.055-4.589-16.643 0l-1.814 2.13a1 1 0 00-.002 1.295l1.734 2.048c4.59 4.588 12.055 4.588 16.644 0l1.814-2.13a1 1 0 00.001-1.295l-1.734-2.048z" fill="#606266" stroke="#606266"/><path d="M12.617 17.836a5.376 5.376 0 01-5.37-5.37c0-2.96 2.409-5.369 5.37-5.369 2.96 0 5.37 2.409 5.37 5.37 0 2.96-2.409 5.37-5.37 5.37zm0-9.913a4.549 4.549 0 00-4.544 4.544 4.549 4.549 0 004.544 4.543 4.549 4.549 0 004.543-4.543 4.549 4.549 0 00-4.543-4.544z" fill="#606266" stroke="#606266"/><rect x="2.465" y="2.991" width="3.2" height="28.724" rx="1.6" transform="rotate(-40.457 2.465 2.991)" fill="#606266" stroke="#fff" stroke-width="1.2"/></svg>
